X: 2932
T: Barrel Rafferty's
R: jig
M: 6/8
K: Gmajor
d|:ged BAB|GED G2A|B2e edB|dBA A2d|
ged BAB|GED G2A|B2e dBA|BGG G2:|
|:d2g gfg|edB d3|e2a aga|bag e2d|
ged BAB|GED G2A|B2e dBA|BGG G2:|

